!!!!SEGMENT: pl-sa--75-a-ii-15--001_vinci-leonardo--lauda-sion-salvatorem.krn
!!!cenid: 17xx:1438
!!!COM: Vinci, Leonardo
!!!COM-rismID: pe30003262
!!!CDT: ~1696-1730
!!!CNT: Italian
!!!OTL: Lauda Sion Salvatorem
!!!PDT:
!!!AGN:
!!!SMS-siglum: PL-SA
!!!SMS-shelfmark: 75/A II 15
!!!SMS-shelfwork: 001 W
!!!SMS-variant:
!!!SMS-altvar:
!!!NIFC-rismSourceID: 1001041162
!!!NIFC-rismChildID: 1001041162
!!!NIFC-islandoraID: none
!!!URL-pdf-islandora:
!!!URL-scan: https://bc.bdsandomierz.pl/dlibra/publication/1352/edition/1320/content @EN{Scan in the Sandomierz Diocese Digital Library} @PL{Skany w portalu Cyfrowa Biblioteka Diecezjalna w Sandomierzu}
!!!ONB-nifc: UWAGA: utwory w zbiorze: 1. Lauda Sion Salvatorem (Aria 1ma), 2. Adoro te devote (Aria 2da)
!!!AIN: 1 alto 1 organ 1 viola 2 violn 1 vox
!!!key:
**kern	**kern	**kern	**kern	**dynam	**kern	**kern	**text	**text
*part6	*part5	*part4	*part3	*part3	*part2	*part1	*part1	*part1
*group	*group2	*group2	*group2	*group2	*group1	*group1	*group1	*group1
*staff6	*staff5	*staff4	*staff3	*	*staff2	*staff1	*staff1	*staff1
*Iorgan	*Iviola	*Ivioln	*Ivioln	*	*Ialto	*Ivox	*	*
*I"Organo.	*I"Alto. Viola.	*I"Violino. 2do.	*I"Violino. 1mo	*	*I"Alto. Solo.	*I"Canto Solo	*	*
*I'org	*I'a-vla	*I'vl 2	*I'vl 1	*	*I'A solo	*I'S solo	*	*
*clefF4	*clefC3	*clefG2	*clefG2	*	*clefC3	*clefC1	*	*
*k[f#c#]	*k[f#c#]	*k[f#c#]	*k[f#c#]	*	*k[f#c#]	*k[f#c#]	*	*
*D:	*D:	*D:	*D:	*	*D:	*D:	*	*
*M2/2	*M2/2	*M2/2	*M2/2	*	*M2/2	*M2/2	*	*
*met(c|)	*met(c|)	*met(c|)	*met(c|)	*	*met(c|)	*met(c|)	*	*
*2\right	*2\right	*2\right	*2\right	*	*	*2\right	*	*
!	!LO:TX:t=P:problem=znaki przykluczowe&colon; f# c# F #	!	!LO:TX:t=P:problem=znaki przykluczowe&colon; ff# cc# f#	!	!	!	!	!
!	!	!LO:TX:i:a:t=1ma. Allabreve	!	!	!	!	!	!
!LO:TX:t=P:problem=brak przedtaktu	!LO:TX:i:a:t=1ma. Aria. Allabreve	!	!LO:TX:i:a:t=1ma Allabreve	!	!LO:TX:t=P:problem=brak części 1ma Allabreve	!LO:TX:t=P:problem=znaki przykluczowe&colon; f# cc#	!	!
!LO:TX:i:a:t=1ma. Allabreve.	!	!	!	!	!	!LO:TX:i:a:t=1ma. Allabreve.	!	!
4ryy	4r	4ee\	4ee\	.	4ryy	4r	.	.
=1	=1	=1	=1	=1	=1	=1	=1	=1
!	!	!	!LO:SIC:v:n=3 s= 4f	!	!	!	!	!
!LO:TX:t=P:problem=all\right&colon; global	!	!	!LO:SIC:v:n=2 s=4a	!	!	!LO:N:vis=00	!	!
4A\	4cc#\	4a/ 4aa	4g\ 4b 4aa	.	1ryy	00r	.	.
4G\	4b\	2a/ 2aa	2a\ 2aa	.	.	.	.	.
4F#\	4a\	.	.	.	.	.	.	.
!	!	!LO:TX:a:t=P:problem=nuty przekreślone	!LO:TX:a:t=P:problem=nuty przekreślone	!	!	!	!	!
!	!	!LO:TX:a:t=P::problem=złe renderowanie&colon;ligatury powinny być ukryte	!LO:TX:a:t=P::problem=złe renderowanie&colon;ligatury powinny być ukryte	!	!	!	!	!
!	!	!LO:N:vis=2	!LO:N:vis=2	!	!	!	!	!
4E\	4g#X\	[y4a/ [y4aa	[y4a\ [y4aa	.	.	.	.	.
=2	=2	=2-	=2-	=2-	=2	=2	=2	=2
4F#\	4a\	4a/]yy 4aa]yy	4a\]yy 4aa]yy	.	1ryy	.	.	.
4E\	4g\	2a/ 2aa	2a\ 2aa	.	.	.	.	.
4D\	4f#\	.	.	.	.	.	.	.
4C#\	4e\	4a/ 4aa	4f#\ 4a 4aa	.	.	.	.	.
=3	=3	=3	=3	=3	=3	=3	=3	=3
2D/	2f#\	8b\L	8b\L	.	1ryy	.	.	.
.	.	8cc#\	8cc#\	.	.	.	.	.
.	.	8dd\	8dd\	.	.	.	.	.
.	.	8ee\J	8ee\J	.	.	.	.	.
4r	4r	8ff#\L	8ff#\L	.	.	.	.	.
.	.	8dd\	8dd\	.	.	.	.	.
4E\	4g#X\	8cc#\	8cc#\	.	.	.	.	.
.	.	8b\J	8b\J	.	.	.	.	.
=4	=4	=4	=4	=4	=4	=4	=4	=4
4AA/	4a\	8cc#\L	8cc#\L	.	1ryy	.	.	.
.	.	8b\J	8b\J	.	.	.	.	.
4A\	4c#\	4a/	4a/	.	.	.	.	.
4c#\	4e\	4r	4r	.	.	.	.	.
4A\	4c#\	4ee\	4ee\	.	.	.	.	.
=5	=5	=5	=5	=5	=5	=5	=5	=5
!	!LO:SIC:v:s=4d t=?	!	!	!	!	!LO:N:vis=00	!	!
4D\	4c#\	4ff#\	4ff#\	.	1ryy	00r	.	.
4D\	4f#\	4dd\	4dd\	.	.	.	.	.
4D\	4f#\	4b\	4b\	.	.	.	.	.
4D\	4f#\	4a/	4a\	.	.	.	.	.
=6	=6	=6	=6	=6	=6	=6	=6	=6
4E\	4e\	4g#X/	4g#X/	.	1ryy	.	.	.
4E\	4e\	2g#/	2g#/	.	.	.	.	.
4E\	4e\	.	.	.	.	.	.	.
4E\	4e\	4ee\	4ee\	.	.	.	.	.
=7	=7	=7	=7	=7	=7	=7	=7	=7
4F#\	4f#\	4a/	4a/	.	1ryy	.	.	.
4F#\	4f#\	2a/	2a/	.	.	.	.	.
4F#\	4f#\	.	.	.	.	.	.	.
4F#\	4f#\	4ee\	4ee\	.	.	.	.	.
=8	=8	=8	=8	=8	=8	=8	=8	=8
4G#X\	4g#X\	4b\	4b\	.	1ryy	.	.	.
4G#\	4g#\	2b\	2b\	.	.	.	.	.
4G#\	4g#\	.	.	.	.	.	.	.
4G#\	4g#\	4ee\	4ee\	.	.	.	.	.
=9	=9	=9	=9	=9	=9	=9	=9	=9
!	!	!LO:SIC:v:s=4ccn	!LO:SIC:v:s=4ccn	!	!	!LO:N:vis=00	!	!
4A\	4a\	4cc-X\	4cc-X\	.	1ryy	00r	.	.
!	!	!LO:TX:a:t=P:problem=tryl bez bemola	!	!	!	!	!	!
!	!	!LO:SIC:v:s=2ccn	!LO:SIC:v:s=2ccn	!	!	!	!	!
4A\	4e\	2cc-T\	2cc-\	.	.	.	.	.
4A\	4e\	.	.	.	.	.	.	.
!	!	!	!LO:LB:g=original	!	!	!	!	!
4A\	4e\	8b\L	8b/L	.	.	.	.	.
.	.	8a\J	8a/J	.	.	.	.	.
!LO:LB:g=original	!	!	!	!	!	!	!	!
=10	=10	=10	=10	=10	=10	=10	=10	=10
4Gn\	4e\	4cc#X\	4cc#\	.	1ryy	.	.	.
4G\	4e\	2cc#\	2cc#\	.	.	.	.	.
4G\	4e\	.	.	.	.	.	.	.
!	!	!LO:LB:g=original	!	!	!	!	!	!
!	!	!	!LO:N:vis=4	!	!	!	!	!
4G\	4e\	8b\L	8b\	.	.	.	.	.
!	!LO:LB:g=original	!	!	!	!	!	!	!
!	!	!	!LO:N:vis=4	!	!	!	!	!
.	.	8a\J	8a\	.	.	.	.	.
=11	=11	=11	=11	=11	=11	=11	=11	=11
4F#\	4f#\	4dd\	4ddn\	.	1ryy	.	.	.
4F#\	4f#\	2dd\	2dd\	.	.	.	.	.
4F#\	4f#\	.	.	.	.	.	.	.
4F#\	4f#\	8cc#\L	8cc#\L	.	.	.	.	.
.	.	8b\J	8b\J	.	.	.	.	.
=12	=12	=12	=12	=12	=12	=12	=12	=12
4B\	4f#\	4dd#X\	4dd#X\	.	1ryy	.	.	.
4B\	4f#\	2dd#\	2dd#\	.	.	.	.	.
4B\	4f#\	.	.	.	.	.	.	.
4A\	4f#\	8cc#\L	8dd#\L	.	.	.	.	.
.	.	8b\J	8cc#\J	.	.	.	.	.
=13	=13	=13	=13	=13	=13	=13	=13	=13
*	*	*^	*	*	*	*	*	*
!	!	!	!	!	!	!	!LO:N:vis=00	!	!
4G#X\	4g#X\	4ee\	4ryy	4ee\	.	1ryy	00r	.	.
4F#\	4a\	2ddd/	2dd\	2bb\	.	.	.	.	.
4G#\	4b\	.	.	.	.	.	.	.	.
!	!	!LO:N:vis=2	!LO:N:vis=2	!LO:N:vis=2	!	!	!	!	!
!	!	!LO:TX:t=P:problem=brak kreski taktowej	!	!LO:TX:t=P:problem=brak kreski taktowej	!	!	!	!	!
4F#\	4g#\	[y4ddd/	[y4dd\	[y4bb\	.	.	.	.	.
=14	=14	=14-	=14-	=14-	=14	=14	=14	=14	=14
4E\	4g#X\	4ddd/]yy	4dd\]yy	4bb\yy]	.	1ryy	.	.	.
4F#\	4a\	2ddd/	2dd\	2bb\	.	.	.	.	.
4G#X\	4b\	.	.	.	.	.	.	.	.
4E\	4g#\	4ddd/	4dd\	4bb\	.	.	.	.	.
*	*	*v	*v	*	*	*	*	*	*
=15	=15	=15	=15	=15	=15	=15	=15	=15
!	!LO:TX:a:t=P:problem=takt zapisany repetycją	!	!LO:N:vis=2	!	!	!	!	!
4E\	4g#X\yy	2.gg#X\	2.gg#X\	.	1ryy	.	.	.
4F#\	4a\yy	.	.	.	.	.	.	.
4G#X\	4b\yy	.	.	.	.	.	.	.
4E\	4g#\yy	16r	8ddn\L	.	.	.	.	.
.	.	8.dd\	.	.	.	.	.	.
.	.	.	8dd\J	.	.	.	.	.
=16	=16	=16	=16	=16	=16	=16	=16	=16
2A\	2a\	16cc#\LL	16cc#\LL	.	1ryy	.	.	.
.	.	16b\JJ	16b\JJ	.	.	.	.	.
.	.	4.a/	4.a/	.	.	.	.	.
!	!LO:SIC:v:s=2g#	!	!	!	!	!	!	!
2E\	2g\	2b\	2b/	.	.	.	.	.
=17	=17	=17	=17	=17	=17	=17	=17	=17
2AA/	4a\	4a\	4a/	.	1ryy	2r	.	.
.	4A/	4A/	4A/	.	.	.	.	.
2r	2r	4r	4r	.	.	4r	.	.
!	!	!	!	!	!	!LO:TX:t=P:problem=all\right&colon; global	!	!
.	.	4ee\	4ee\	.	.	4ee\	Lau-	San-
=18	=18	=18	=18	=18	=18	=18	=18	=18
!	!LO:SIC:v:s=4cc	!	!	!	!	!	!	!
4A\	4b\	4a/	4a/	.	1ryy	4a\	.	.
4G\	4b\	2a/	2a/	.	.	2a\	-da	-cti
4F#\	4a\	.	.	.	.	.	.	.
!	!	!	!LO:LB:g=original	!	!	!	!	!
4E\	4g#X\	4a/	4a/	.	.	4a\	.	tu-
=19	=19	=19	=19	=19	=19	=19	=19	=19
4F#\	4a\	4a/	4a/	.	1ryy	4a\	Si-	-i
4E\	4f#X\	2aa\	2aa\	.	.	2aa\	-on	Do-
4D\	4f#\	.	.	.	.	.	.	.
4C#\	4e\	4a/	4a/	.	.	4a\	.	.
!LO:LB:g=original	!	!	!	!	!	!	!	!
=20	=20	=20	=20	=20	=20	=20	=20	=20
2D/	2f#\	8b\L	8b\L	.	1ryy	8b\L	Sal-	-mi-
.	.	8cc#\	8cc#\	.	.	8cc#\	.	.
.	.	8dd\	8dd\	.	.	8dd\	.	.
.	.	8ee\J	8ee\J	.	.	8ee\J	.	.
4r	4r	8ff#\L	8ff#\L	.	.	8ff#\L	-va-	-ne
.	.	8dd\	8dd\	.	.	8b\	.	.
4E\	4g#X\	8cc#\	8cc#\	.	.	8cc#\	.	.
.	.	8b\J	8b\J	.	.	8b\J	.	.
!	!	!LO:LB:g=original	!	!	!	!	!	!
=21	=21	=21	=21	=21	=21	=21	=21	=21
4AA/	4a\	8cc#\L	8cc#\L	.	1ryy	8cc#\L	-to-	San-
.	.	8b\J	8b\J	.	.	8b\J	.	.
4D/	4a\	4a/	4a/	.	.	4a\	-rem	-cti
4C#/	4cc#\	4r	4r	.	.	4r	.	.
!	!	!	!	!LO:DY:a:t=piano	!	!	!	!
4BB/	4g#X\	4ee\	4ee\	p	.	4ee\	Lau-	tu-
=22	=22	=22	=22	=22	=22	=22	=22	=22
4A\	4a\	4a/	4a/	.	1ryy	4a\	.	-i
4G#X\	4g#X\	2a/	2a/	.	.	2a\	-da	Do-
4F#\	4f#\	.	.	.	.	.	.	.
4E\	4e\	4a/	4a/	.	.	4a\	.	.
!	!LO:LB:g=original	!	!	!	!	!	!	!
=23	=23	=23	=23	=23	=23	=23	=23	=23
4F#\	4f#\	4a/	4a/	.	1ryy	4a\	Du-	-mi-
4E\	4e\	2aa\	2aa\	.	.	2aa\	.	.
4D\	4d\	.	.	.	.	.	.	.
4C#\	4c#\	4a/	4a/	.	.	4a\	-cem	-ne
!	!	!	!	!	!	!LO:LB:g=original	!	!
=24	=24	=24	=24	=24	=24	=24	=24	=24
!	!LO:SIC:v:s=2B t= lub 2d	!	!	!	!	!	!	!
2D\	2c#\	8b\L	8b\L	.	1ryy	8b\L	et	Flo-
.	.	8cc#\	8cc#\	.	.	8cc#\	.	.
.	.	8dd\	8dd\	.	.	8dd\	.	.
.	.	8ee\J	8ee\J	.	.	8ee\J	.	.
4r	4r	8ff#\L	8ff#\L	.	.	8ff#\L	Pas-	-re-
.	.	8dd\	8dd\	.	.	8ee\	.	.
4E\	4e\	8cc#\	8cc#\	.	.	8dd\	.	.
.	.	8b\J	8b\J	.	.	8cc#\J	.	.
=25	=25	=25	=25	=25	=25	=25	=25	=25
4AA/	4a\	8cc#\L	8cc#\L	.	1ryy	8cc#\L	-to-	-bunt
.	.	8b\J	8b\J	.	.	8b\J	.	.
4AA/	4A/	4a/	4a/	.	.	4a\	-rem	flo-
4A\	4cc#\	4r	4r	.	.	4r	.	.
4A\	4cc#\	4ee\	4ee\	.	.	4ee\	Lau-	-re-
!	!	!	!LO:LB:g=original	!	!	!	!	!
=26	=26	=26	=26	=26	=26	=26	=26	=26
1A	1f#	4ff#\	4ff#\	.	1ryy	4ff#\	.	-b[[unt]]-
.	.	4aa\	4aa\	.	.	4aa\	.	.
.	.	4ff#\	4ff#\	.	.	4ff#\	.	.
.	.	4ee\	4ee\	.	.	4ee\	.	.
=27	=27	=27	=27	=27	=27	=27	=27	=27
4A\	4f#\	2.dd#X\	2.dd#X\	.	1ryy	2.dd#X\	.	.
4A\	4f#\	.	.	.	.	.	.	.
4A\	4f#\	.	.	.	.	.	.	.
4A\	4f#\	8ee\L	8ee\L	.	.	8ee\L	.	.
.	.	8dd#\J	8dd#\J	.	.	8dd#\J	.	.
=28	=28	=28	=28	=28	=28	=28	=28	=28
1Gn	1e	4ee\	4ee\	.	1ryy	4ee\	.	.
.	.	4ggn\	4ggn\	.	.	4ggn\	.	.
.	.	4ee\	4ee\	.	.	4ee\	.	.
.	.	4dd\	4dd\	.	.	4dd\	.	.
=29	=29	=29	=29	=29	=29	=29	=29	=29
4G\	4e\	2.cc#X\	2.cc#\	.	1ryy	(>2.cc#X\	.	.
4G\	4e\	.	.	.	.	.	.	.
4G\	4e\	.	.	.	.	.	.	.
4G\	8e\L	8dd\L	8dd\L	.	.	8dd\L)	.	.
.	8e\J	8cc#\J	8cc#\J	.	.	8cc#\J	.	.
=30	=30	=30	=30	=30	=30	=30	=30	=30
1F#	1f#	4dd\	4dd\	.	1ryy	4dd\	.	.
.	.	4ff#\	4ff#\	.	.	4ff#\	.	.
.	.	4dd\	4dd\	.	.	4dd\	.	.
.	.	4cc#\	4cc#\	.	.	4cc#\	.	.
!LO:LB:g=original	!	!	!	!	!	!	!	!
=31	=31	=31	=31	=31	=31	=31	=31	=31
4F#\	4f#\	2.b\	2.b\	.	1ryy	2.b\	.	.
4G\	4g\	.	.	.	.	.	.	.
4G\	4a\	.	.	.	.	.	.	.
!	!	!LO:LB:g=original	!	!	!	!	!	!
4F#\	4f#\	8cc#\L	8cc#\L	.	.	8cc#\L	.	.
.	.	8dd#X\J	8dd#X\J	.	.	8dd#X\J	.	.
!	!	!	!	!	!	!LO:LB:g=original	!	!
=32	=32	=32	=32	=32	=32	=32	=32	=32
2E\	2e\	4ee\	4ee\	.	1ryy	4ee\	.	.
.	.	4gg\	4gg\	.	.	4gg\	.	.
2AA#X/	2c#\	4ff#\	4ff#\	.	.	4ff#\	.	.
.	.	4ee\	4ee\	.	.	4ee\	-da	-bunt
=33	=33	=33	=33	=33	=33	=33	=33	=33
4BB/	4B/	16dd\LL	16dd\LL	.	1ryy	16dd\LL	pa-	[flo-
.	.	16cc#\JJ	16cc#\JJ	.	.	16cc#\JJ	.	.
.	.	4.b\	4.b\	.	.	4.b\	-sto-	.
4D\	4d\	.	.	.	.	.	.	.
!	!	!LO:N:vis=8	!	!	!	!	!	!
4E\	4e\	16cc#\LL	16cc#\LL	.	.	16cc#\LL	.	re-]-
!	!	!LO:N:vis=8	!	!	!	!	!	!
.	.	16b\JJ	16b\JJ	.	.	16b\JJ	.	.
.	.	4.a#X/	4.a#X/	.	.	4.a#X\	.	.
4F#\	4f#\	.	.	.	.	.	.	.
=34	=34	=34	=34	=34	=34	=34	=34	=34
4B\	4b\	4b/	4b\	.	1ryy	1b	-rem	-bunt
4A\	4a\	2bb\	2bb\	.	.	.	.	.
4G\	4g\	.	.	.	.	.	.	.
!	!	!	!LO:LB:g=original	!	!	!	!	!
!	!	!	!LO:TX:t=P:problem=brak kreski taktowej	!	!	!	!	!
!	!	!	!LO:N:vis=2	!	!	!	!	!
4F#\	4f#\	4b/	[y4b/	.	.	.	.	.
=35	=35	=35	=35-	=35	=35	=35	=35	=35
!	!	!	!	!	!	!LO:N:vis=0	!	!
4G\	4g\	4b/	4b/yy]	.	1ryy	0r	.	.
4F#\	4f#\	2b/	2b/	.	.	.	.	.
4E\	4e\	.	.	.	.	.	.	.
4D\	4d\	4b/	4b/	.	.	.	.	.
=36	=36	=36	=36	=36	=36	=36	=36	=36
2E\	2e\	8cc#\L	8cc#\L	.	1ryy	.	.	.
.	.	8dd\	8dd\	.	.	.	.	.
.	.	8ee\	8ee\	.	.	.	.	.
.	.	8ff#\J	8ff#\J	.	.	.	.	.
4r	4r	8gg\L	8gg\L	.	.	.	.	.
.	.	8ee\	8ff#\	.	.	.	.	.
4F#\	4f#\	8dd\	8dd\	.	.	.	.	.
.	.	8cc#\J	8cc#\J	.	.	.	.	.
!	!LO:LB:g=original	!	!	!	!	!	!	!
=37	=37	=37	=37	=37	=37	=37	=37	=37
4BB/	4B/	16dd\LL	16dd\LL	.	1ryy	1r	.	.
.	.	16cc#\JJ	16cc#\JJ	.	.	.	.	.
.	.	4.b\	4.b\	.	.	.	.	.
4D/	4d\	.	.	.	.	.	.	.
4E\	4e\	16cc#\LL	16cc#\LL	.	.	.	.	.
.	.	16b\JJ	16b\JJ	.	.	.	.	.
.	.	4.a#X/	4.a#X/	.	.	.	.	.
4F#\	4f#\	.	.	.	.	.	.	.
=38	=38	=38	=38	=38	=38	=38	=38	=38
1BB	1B	4b\	4b/	.	1ryy	2r	.	.
.	.	4B/	4B/	.	.	.	.	.
.	.	4r	4r	.	.	4r	.	.
.	.	4ff#\	4ff#\	.	.	4ff#\	Lau-	A-
=39	=39	=39	=39	=39	=39	=39	=39	=39
4B\	4b\	4b\	4b/	.	1ryy	(>4b\	.	-le-
4c#\	4cc#\	2b\	2b/	.	.	2b\	-da	-llu-
4B\	4b\	.	.	.	.	.	.	.
4A\	4a\	4b\	4b/	.	.	4b\)	.	.
=40	=40	=40	=40	=40	=40	=40	=40	=40
4G#X\	4g#X\	4b\	4b\	.	1ryy	4b\	Si-	.
4G#\	4g#\	2dd\	2ff#\	.	.	2ff#\	-on	-ia
4G#\	4g#\	.	.	.	.	.	.	.
*	*	*	*	*	*	*	*	*ij
!	!	!	!LO:TX:t=P:problem=brak kreski taktowej	!	!	!	!	!
!	!	!	!LO:N:vis=2	!	!	!	!	!
4G#\	4g#\	4b\	[y4dd\	.	.	4b\	.	A-
!LO:LB:g=original	!	!LO:LB:g=original	!	!	!	!	!	!
=41	=41	=41	=41-	=41	=41	=41	=41	=41
!LO:SIC:v:s=4G#	!LO:SIC:v:s=4g#	!	!	!	!	!	!	!
4G\	4g\	4b\	4dd\yy]	.	1ryy	4dd\	ſal-	-le-
!LO:SIC:v:s=4G#	!LO:SIC:v:s=4g#	!	!	!	!	!	!	!
4G\	4g\	2dd\	2ddd\	.	.	4bb\	.	.
!LO:SIC:v:s=4G#	!LO:SIC:v:s=4g#	!	!	!	!	!	!	!
4G\	4g\	.	.	.	.	4bb\	-va-	-llu-
!LO:SIC:v:s=4G#	!LO:SIC:v:s=4g#	!	!	!	!	!	!	!
4G\	4g\	4b\	4dd\	.	.	4dd\	.	.
=42	=42	=42	=42	=42	=42	=42	=42	=42
4A\	4a\	4e/	4dd\	.	1ryy	4dd\	-to-	-ia
*	*	*	*	*	*	*	*	*Xij
4A\	4a\	4ee\	4cc#\	.	.	4cc#\	-rem	.
4A\	4a\	4r	4r	.	.	4r	.	.
!	!	!	!LO:LB:g=original	!	!	!	!	!
!	!	!LO:SIC:v:s=4ee	!	!	!	!	!	!
4A\	4a\	4ff#\	4ee\	.	.	4ee\	.	.
=43	=43	=43	=43	=43	=43	=43	=43	=43
!	!	!	!	!	!	!LO:SIC:v:s=4ff	!	!
4d\	4dd\	4ff#\	4ff#\	.	1ryy	4ee\	Lau-	Et
4d\	4dd\	2aa\	2aa\	.	.	2aa\	.	Si-
4d\	4dd\	.	.	.	.	.	.	.
4d\	4dd\	4dd\	4dd\	.	.	4dd\	-da	-cut
!	!	!	!	!	!	!LO:LB:g=original	!	!
=44	=44	=44	=44	=44	=44	=44	=44	=44
4c#\	4cc#\	4ee\	4ee\	.	1ryy	(>4ee\	Du-	Et
4c#\	4cc#\	2aa\	2aa\	.	.	2aa\)	.	.
4c#\	4cc#\	.	.	.	.	.	.	.
4c#\	4cc#\	4cc#\	4cc#\	.	.	4cc#\	-cem	Si-
=45	=45	=45	=45	=45	=45	=45	=45	=45
4B\	4b\	2dd\	4dd\	.	1ryy	4dd\	et	-cut
4B\	4b\	.	8cc#\L	.	.	8cc#\L	.	.
.	.	.	8dd\J	.	.	8dd\J	.	.
4B\	4e\	2g#X/	4ee\	.	.	4ee\	pas-	O-
4E\	4e\	.	4dd\	.	.	4dd\	.	-dor
=46	=46	=46	=46	=46	=46	=46	=46	=46
4A\	4a\	2a/	8cc#\L	.	1ryy	8cc#\L	-to-	.
!	!	!	!	!	!	!	!LO:MO:mod=Bal-	!
.	.	.	8b\J	.	.	8b\J	-rem	Pal-
4A\	4a\	.	4a/	.	.	4a\	.	.
4C#/	4c#/	4r	4r	.	.	4r	.	.
8BB/L	4A/	4ee\	4ee\	.	.	4ee\	Lau-	-ſa-
8AA/J	.	.	.	.	.	.	.	.
=47	=47	=47	=47	=47	=47	=47	=47	=47
4D\	4d\	4ff#\	4ff#\	.	1ryy	4ff#\	.	-mi-
4D\	4d\	4dd\	4dd\	.	.	4dd\	.	.
4D\	4d\	4b\	4b\	.	.	4b\	.	.
4D\	4d\	4a\	4a\	.	.	4a\	.	.
=48	=48	=48	=48	=48	=48	=48	=48	=48
!	!	!	!	!	!	!LO:SIC:v:s=4g#	!	!
4E\	4e\	4g#X/	4g#X/	.	1ryy	4g/	.	.
!	!	!	!	!	!	!LO:SIC:v:s=2g#	!	!
4E\	4e\	2e/	2g#/	.	.	(>2g/	.	.
4E\	4e\	.	.	.	.	.	.	.
4E\	4e\	4ee\	4ee\	.	.	4ee\)	.	.
!	!LO:LB:g=original	!	!	!	!	!	!	!
=49	=49	=49	=49	=49	=49	=49	=49	=49
!	!	!	!LO:SIC:v:s=2a	!	!	!	!	!
4F#\	4f#\	4a/	2g/	.	1ryy	4a\	.	.
4F#\	4f#\	2a/	.	.	.	(>2a\	.	.
4F#\	4f#\	.	4cc#\	.	.	.	.	.
4F#\	4f#\	4ee\	4ee\	.	.	4ee\)	.	.
=50	=50	=50	=50	=50	=50	=50	=50	=50
4G#X\	4g#X\	4b/	4b\	.	1ryy	4b\	.	.
4G#\	4g#\	2b/	2b\	.	.	(>2b\	.	.
4G#\	4g#\	.	.	.	.	.	.	.
4G#\	4g#\	4ee\	4ee\	.	.	4ee\)	.	.
!LO:LB:g=original	!	!	!LO:LB:g=original	!	!	!	!	!
=51	=51	=51	=51	=51	=51	=51	=51	=51
!	!	!LO:SIC:v:s=4ccn	!LO:SIC:v:s=4ccn	!	!	!LO:SIC:v:s=4ccn	!	!
4A\	4a\	4cc-X\	4cc-X\	.	1ryy	4cc-X\	.	.
!	!	!LO:SIC:v:s=2ccn	!LO:SIC:v:s=2ccn	!	!	!LO:SIC:v:s=2ccn	!	!
4A\	4a\	2cc-\	2cc-\	.	.	2cc-\	.	.
4A\	4a\	.	.	.	.	.	.	.
4A\	4a\	8b\L	8b\L	.	.	8b\L	.	.
.	.	8a\J	8a\J	.	.	8a\J	.	.
!	!	!	!	!	!	!LO:LB:g=original	!	!
=52	=52	=52	=52	=52	=52	=52	=52	=52
!	!	!	!LO:TX:a:t=c	!	!	!	!	!
4Gn\	4gn\	4cc#X\	4cc#X\	.	1ryy	4cc#\	.	.
4G\	4g\	2cc#\	2cc#\	.	.	2cc#\	.	.
4G\	4g\	.	.	.	.	.	.	.
!	!	!LO:LB:g=original	!	!	!	!	!	!
4G\	4g\	8b\L	8b/L	.	.	8b\L	.	.
.	.	8a\J	8a/J	.	.	8a\J	.	.
=53	=53	=53	=53	=53	=53	=53	=53	=53
4F#\	4f#\	4dd\	4dd\	.	1ryy	4dd\	.	.
4F#\	4f#\	2dd\	2dd\	.	.	2dd\	.	.
4F#\	4f#\	.	.	.	.	.	.	.
4F#\	4f#\	8cc#\L	8cc#\L	.	.	8dd\L	.	.
.	.	8b\J	8b\J	.	.	8cc#\J	.	.
=54	=54	=54	=54	=54	=54	=54	=54	=54
4B\	4b\	4dd#X\	4dd#X\	.	1ryy	4dd#X\	.	.
4B\	4b\	2dd#\	2dd#\	.	.	2dd#\	.	.
4A\	4a\	.	.	.	.	.	.	.
4A\	4a\	8cc#\L	8cc#\L	.	.	8cc#\L	.	.
.	.	8b\J	8b\J	.	.	8b\J	.	.
=55	=55	=55	=55	=55	=55	=55	=55	=55
!	!LO:SIC:v:s=4g#	!	!	!	!	!	!	!
4G#X\	4g\	4ee\	4ee\	.	1ryy	4ee\	.	.
4A\	4a\	2ddn\	2ddn\	.	.	2ddn\	.	.
!	!LO:SIC:v:s=4g#	!	!	!	!	!	!	!
4G#\	4g\	.	.	.	.	.	.	.
4F#\	4f#\	4dd\	4dd\	.	.	4dd\	-da	-mi
=56	=56	=56	=56	=56	=56	=56	=56	=56
4E\	4e\	4dd\	4dd\	.	1ryy	4dd\	Du-	Bal-
4F#\	4f#\	2dd\	2dd\	.	.	2dd\	.	.
!LO:SIC:v:s=4G#	!	!	!	!	!	!	!	!
4G\	4g#X\	.	.	.	.	.	.	.
!	!LO:TX:a:t=e	!	!	!	!	!	!	!
4E\	4e\	4dd\	4dd\	.	.	4dd\	-cem	-sa-
=57	=57	=57	=57	=57	=57	=57	=57	=57
4E\	4e\	2.gg#X\	2.gg#X\	.	1ryy	2.gg#X\	.	.
4F#\	4f#\	.	.	.	.	.	.	.
!LO:SIC:v:s=4G#	!LO:SIC:v:s=4g#	!	!	!	!	!	!	!
4G\	4g\	.	.	.	.	.	.	.
4E\	4e\	4ddn\	4ddn\	.	.	4ddn\	et	-mi
=58	=58	=58	=58	=58	=58	=58	=58	=58
4A\	4a\	16cc#\LL	16cc#\LL	.	1ryy	16cc#\LL	pa-	Bal-
.	.	16b\JJ	16b\JJ	.	.	16b\JJ	.	.
.	.	4.a/	4.a/	.	.	4.a\	-sto-	sa-
4C#/	4c#\	.	.	.	.	.	.	.
!	!	!	!	!	!	!LO:N:vis=8	!	!
4D/	4d\	16b/LL	16b/LL	.	.	16b\LL	.	.
!	!	!	!	!	!	!LO:N:vis=8	!	!
.	.	16a/JJ	16a/JJ	.	.	16a\JJ	.	.
!	!	!	!LO:LB:g=original	!	!	!	!	!
!	!	!	!	!	!	!LO:SIC:v:s=4.g#	!	!
.	.	4.g#X/	4.g#X/	.	.	4.g\	.	.
4E/	4e\	.	.	.	.	.	.	.
=59	=59	=59	=59	=59	=59	=59	=59	=59
4A\	4a\	2a/	2a/	.	1ryy	2a\	-rem	-mi,
!	!LO:SIC:v:s=4d	!	!	!	!	!	!	!
4D/	4c#\	.	.	.	.	.	.	.
!	!LO:SIC:v:s=4c	!	!	!	!	!	!	!
4C#/	4B\	4r	4r	.	.	4r	.	.
!	!LO:SIC:v:s=4B	!	!	!	!	!	!	!
4BB/	4A\	4ee\	4ee\	.	.	4ee\	Lau-	Erunt
!	!	!	!	!	!	!LO:LB:g=original	!	!
=60	=60	=60	=60	=60	=60	=60	=60	=60
4AA/	4A/	2a/	2a/	.	1ryy	4a\	.	.
4D/	4d/	.	.	.	.	2a\	-da	an-
4C#/	4c#/	4a/	4a/	.	.	.	.	.
4BB/	4B/	4a/	4a/	.	.	4a\	.	.
!LO:LB:g=original	!	!	!	!	!	!	!	!
=61	=61	=61	=61	=61	=61	=61	=61	=61
4AA/	4A/	8a/L	16a/LL	.	1ryy	8a\L	Si-	-te
.	.	.	16g#X/JJ	.	.	.	.	.
!	!	!	!LO:N:vis=4	!	!	!	!	!
.	.	8g#X/J	4.a/	.	.	8g#X\J	-on	te
4A\	4a\	4a/	.	.	.	4a\	.	.
!	!	!LO:LB:g=original	!	!	!	!	!	!
4c#\	4cc#\	4r	4r	.	.	4r	.	.
!LO:SIC:v:s=4G#	!	!	!	!	!	!	!	!
4A#X\	4g#X\	4ee\	4ee\	.	.	4ee\	Lau-	An-
!	!LO:LB:g=original	!	!	!	!	!	!	!
=62	=62	=62	=62	=62	=62	=62	=62	=62
4A\	4a\	4a/	4a/	.	1ryy	4a\	.	-te
4D/	4d\	2a/	2a/	.	.	2a\	-da	te
4C#/	4c#\	.	.	.	.	.	.	.
4BB/	4B\	4a/	4a/	.	.	4a\	.	.
=63	=63	=63	=63	=63	=63	=63	=63	=63
4AA/	4A/	8a/L	8a/L	.	1ryy	8b\L	pa-	An-
.	.	8g#X/J	8g#X/J	.	.	8g#X\J	sto-	-te
4A\	4a\	4a/	4a/	.	.	4a\	-rem	te,
4c#\	4cc#\	4r	4r	.	.	4r	.	.
!	!	!	!	!	!	!	!LO:MO:mod=Lau-	!
4A\	4a\	4ee\	4ee\	.	.	4ee\	Lad-	A-
=64	=64	=64	=64	=64	=64	=64	=64	=64
4D/	4d\	4ff#\	4ff#\	.	1ryy	4ff#\	.	.
4D/	4d\	2ff#\	2ff#\	.	.	2ff#\	.	-lle-
4D/	4d\	.	.	.	.	.	.	.
!	!	!	!	!	!	!LO:SIC:v:s=4gg#	!	!
4D/	4d\	4gg#X\	4gg#X\	.	.	4gg\	-da	.
=65	=65	=65	=65	=65	=65	=65	=65	=65
4C#/	4c#\	4aa\	4aa\	.	1ryy	4aa\	du-	-lu-
4C#/	4c#\	2a/	2a/	.	.	2a\	-cem	-ia,
4C#/	4c#\	.	.	.	.	.	.	.
4C#/	4c#\	8b\L	8b/L	.	.	8b\L	.	.
.	.	8cc#\J	8cc#/J	.	.	8cc#\J	.	.
=66	=66	=66	=66	=66	=66	=66	=66	=66
4BB/	4B/	4dd\	4dd\	.	1ryy	4dd\	et	A-
4B\	4b\	2dd\	2dd\	.	.	2dd\	.	.
4G#X\	4g#X\	.	.	.	.	.	.	.
4F#\	4f#\	4dd\	4dd\	.	.	4dd\	pa-	lle-
=67	=67	=67	=67	=67	=67	=67	=67	=67
!	!	!	!	!	!	!LO:N:vis=2	!	!
4E\	4e\	2.gg#X\	2.gg#X\	.	1ryy	2.gg#X\	-sto-	-lu-
4F#\	4f#\	.	.	.	.	.	.	.
4G#X\	4g#X\	.	.	.	.	.	.	.
4E\	4e\	4dd\	4ddn\	.	.	4dd\	.	.
!	!	!	!LO:LB:g=original	!	!	!LO:LB:g=original	!	!
=68	=68	=68	=68	=68	=68	=68	=68	=68
!	!	!	!	!	!	!LO:N:vis=8	!	!
4A\	4a\	16cc#\LL	16cc#\LL	.	1ryy	16cc#\LL	.	.
!	!	!	!	!	!	!LO:N:vis=8	!	!
.	.	16b\JJ	16b\JJ	.	.	16b\JJ	.	.
!	!	!	!LO:N:vis=4	!	!	!	!	!
.	.	4.a/	4.a/	.	.	4.a\	.	.
4C#\	4c#\	.	.	.	.	.	.	.
!	!	!	!	!	!	!LO:N:vis=8	!	!
4D\	4d\	16b/LL	16b/LL	.	.	16b\LL	.	.
!	!	!	!	!	!	!LO:N:vis=8	!	!
.	.	16a/JJ	16a/JJ	.	.	16a\JJ	.	.
.	.	4.g#X/	4.g#X/	.	.	4.g#X\	.	.
4E\	4e\	.	.	.	.	.	.	.
!	!	!LO:LB:g=original	!	!	!	!	!	!
=69	=69	=69	=69	=69	=69	=69	=69	=69
!	!	!	!	!LO:DY:a:t=for&colon;:rj	!	!	!	!
4A\	2a\	4a/	4a/	f	1ryy	1a	-rem	-ia
4G#X\	.	2aa\	2aa\	.	.	.	.	.
4F#\	4a\	.	.	.	.	.	.	.
!	!	!LO:TX:t=P:problem=brak kreski taktowej	!LO:TX:t=P:problem=brak kreski taktowej	!	!	!	!	!
!	!	!LO:N:vis=2	!LO:N:vis=2	!	!	!	!	!
4E\	4g#X\	[y4aa\	[y4aa\	.	.	.	.	.
!LO:LB:g=original	!	!	!	!	!	!	!	!
=70	=70	=70-	=70	=70	=70	=70	=70	=70
!	!	!	!	!	!	!LO:N:vis=00	!	!
4F#\	4a\	4aa\]yy	4aa\yy]	.	1ryy	00r	.	.
4E\	4g\	2a/	2aa\	.	.	.	.	.
4D\	4f#\	.	.	.	.	.	.	.
4C#\	4e\	4a/	4a/	.	.	.	.	.
=71	=71	=71	=71	=71	=71	=71	=71	=71
2D/	2f#\	8b\L	8b\L	.	1ryy	.	.	.
.	.	8cc#\	8cc#\	.	.	.	.	.
.	.	8dd\	8dd\	.	.	.	.	.
.	.	8ee\J	8ee\J	.	.	.	.	.
4r	4r	8ff#\L	8ff#\L	.	.	.	.	.
.	.	8dd\	8dd\	.	.	.	.	.
4E\	4g#X\	8cc#\	8cc#\	.	.	.	.	.
.	.	8b\J	8b\J	.	.	.	.	.
=72	=72	=72	=72	=72	=72	=72	=72	=72
4A\	4a\	8cc#\L	8cc#\L	.	1ryy	.	.	.
.	.	8b\J	8b\J	.	.	.	.	.
4AA/	4c#\	4a/	4a/	.	.	.	.	.
4C#/	4e\	4r	4r	.	.	.	.	.
4AA/	4c#\	4ee\	4ee\	.	.	.	.	.
=73	=73	=73	=73	=73	=73	=73	=73	=73
4D\	4d\	4ff#\	4ff#\	.	1ryy	.	.	.
4D\	4d\	4dd\	4dd\	.	.	.	.	.
4D\	4d\	4b/	4b/	.	.	.	.	.
4D\	4d\	4a/	4a/	.	.	.	.	.
=74	=74	=74	=74	=74	=74	=74	=74	=74
!	!	!	!	!	!	!LO:N:vis=00	!	!
4E\	4e\	4g#X/	4g#X/	.	1ryy	00r	.	.
4E\	4e\	2g#/	2g#/	.	.	.	.	.
4E\	4e\	.	.	.	.	.	.	.
4E\	4e\	4ee\	4ee\	.	.	.	.	.
!	!LO:PB:g=original	!	!	!	!	!	!	!
=75	=75	=75	=75	=75	=75	=75	=75	=75
4F#\	4f#\	4a/	4a/	.	1ryy	.	.	.
4F#\	4f#\	2a/	2a/	.	.	.	.	.
4F#\	4f#\	.	.	.	.	.	.	.
4F#\	4f#\	4ee\	4ee\	.	.	.	.	.
=76	=76	=76	=76	=76	=76	=76	=76	=76
4G#X\	4g#X\	4b\	4b\	.	1ryy	.	.	.
4G#\	4g#\	2b\	2b\	.	.	.	.	.
4G#\	4g#\	.	.	.	.	.	.	.
4G#\	4g#\	4ee\	4ee\	.	.	.	.	.
!	!	!LO:LB:g=original	!LO:LB:g=original	!	!	!	!	!
=77	=77	=77	=77	=77	=77	=77	=77	=77
!LO:TX:t=P:problem=zbędny takt vl2	!LO:TX:t=P:problem=zbędny takt vl2	!LO:TX:t=P:problem=zbędny takt	!LO:TX:t=P:problem=zbędny takt vl2	!	!	!LO:TX:t=P:problem=zbędny takt vl2	!	!
1ryy	1ryy	4dd\	1ryy	.	1ryy	.	.	.
.	.	2dd\	.	.	.	.	.	.
.	.	4ee\	.	.	.	.	.	.
=78	=78	=78	=78	=78	=78	=78	=78	=78
!	!LO:TX:t=P:problem=brak taktu	!LO:SIC:v:s=4ccn	!LO:SIC:v:s=4ccn	!	!	!	!	!
4A\	1ryy	4cc-X\	4cc-X\	.	1ryy	1ryy	.	.
!	!	!LO:SIC:v:s=2ccn	!LO:SIC:v:s=2ccn	!	!	!	!	!
4A\	.	2cc-\	2cc-\	.	.	.	.	.
4A\	.	.	.	.	.	.	.	.
4A\	.	8b\L	8b/L	.	.	.	.	.
.	.	8a\J	8a/J	.	.	.	.	.
=79	=79	=79	=79	=79	=79	=79	=79	=79
!	!	!	!	!	!	!LO:N:vis=00	!	!
4Gn\	4a\	4cc#X\	4cc#X\	.	1ryy	00r	.	.
4G\	4e\	2cc#\	2cc#\	.	.	.	.	.
4G\	4e\	.	.	.	.	.	.	.
4G\	4e\	8b\L	8b\L	.	.	.	.	.
.	.	8a\J	8a\J	.	.	.	.	.
=80	=80	=80	=80	=80	=80	=80	=80	=80
4F#\	4f#\	4dd\	4dd\	.	1ryy	.	.	.
4F#\	4f#\	2dd\	2dd\	.	.	.	.	.
4F#\	4f#\	.	.	.	.	.	.	.
4F#\	4f#\	8cc#\L	8cc#\L	.	.	.	.	.
.	.	8b\J	8b\J	.	.	.	.	.
=81	=81	=81	=81	=81	=81	=81	=81	=81
!	!	!LO:TX:t=P:problem=brak taktu	!	!	!	!	!	!
4B\	4f#\	1ryy	4dd#X\	.	1ryy	.	.	.
4B\	4f#\	.	2dd#\	.	.	.	.	.
4B\	4f#\	.	.	.	.	.	.	.
4A\	4f#\	.	8cc#\L	.	.	.	.	.
.	.	.	8b\J	.	.	.	.	.
!LO:LB:g=original	!	!	!	!	!	!	!	!
=82	=82	=82	=82	=82	=82	=82	=82	=82
*	*	*^	*^	*	*	*	*	*
4G#X\	4g#X\	4ee\	4ryy	4ee\	4ryy	.	1ryy	.	.	.
4F#\	4a\	2ddd/	2ddn\	2bb/	2ddn\	.	.	.	.	.
4G#\	4b\	.	.	.	.	.	.	.	.	.
!	!	!LO:TX:t=P:problem=brak kreski taktowej	!	!LO:TX:t=P:problem=brak kreski taktowej	!	!	!	!	!	!
!	!	!LO:N:vis=2	!LO:N:vis=2	!LO:N:vis=2	!LO:N:vis=2	!	!	!	!	!
4F#\	4g#\	[y4ddd/	[y4dd\	[y4bb/	[y4dd\	.	.	.	.	.
=83	=83	=83-	=83-	=83-	=83-	=83	=83	=83	=83	=83
!	!LO:TX:a:t=P:problem=takt zapisany repetycją	!	!	!	!	!	!	!	!	!
!	!	!	!	!	!	!	!	!LO:N:vis=00	!	!
4E\	4g#X\yy	4ddd/]yy	4dd\]yy	4bb/yy]	4dd\yy]	.	1ryy	00r	.	.
4F#\	4a\yy	2ddd/	2dd\	2bb/	2dd\	.	.	.	.	.
!LO:TX:t=P:problem=♯ above	!	!	!	!	!	!	!	!	!	!
4G#X\	4b\yy	.	.	.	.	.	.	.	.	.
4F#\	4g#\yy	4ddd/	4dd\	4bb/	4dd\	.	.	.	.	.
*	*	*v	*v	*	*	*	*	*	*	*
*	*	*	*v	*v	*	*	*	*	*
=84	=84	=84	=84	=84	=84	=84	=84	=84
4E\	4g#X\	2.gg#X\	2.gg#X\	.	1ryy	.	.	.
4F#\	4a\	.	.	.	.	.	.	.
4G#X\	4b\	.	.	.	.	.	.	.
4F#\	4g#\	4ddn\	4ddn\	.	.	.	.	.
=85	=85	=85	=85	=85	=85	=85	=85	=85
4A\	4a\	16cc#\LL	16cc#\LL	.	1ryy	.	.	.
.	.	16b\JJ	16b\JJ	.	.	.	.	.
.	.	4.a/	4.a/	.	.	.	.	.
4C#/	4c#\	.	.	.	.	.	.	.
4D/	4d\	16b/LL	16b/LL	.	.	.	.	.
.	.	16a/JJ	16a/JJ	.	.	.	.	.
.	.	4.g#X/	4.g#X/	.	.	.	.	.
4E/	4e\	.	.	.	.	.	.	.
!	!	!LO:LB:g=original	!	!	!	!	!	!
=86	=86	=86	=86	=86	=86	=86	=86	=86
4AA/	4A/	8aa\L	8aa\L	.	1ryy	.	.	.
.	.	8ee\	8ee\	.	.	.	.	.
4GG#X/	4G#X/	8bb\	8bb\	.	.	.	.	.
.	.	8ee\J	8ee\J	.	.	.	.	.
!	!	!	!LO:LB:g=original	!	!	!	!	!
4AA/	4A/	8ccc#\L	8ccc#\L	.	.	.	.	.
.	.	8ee\	8ee\	.	.	.	.	.
4BB/	4B/	8ddd\	8ddd\	.	.	.	.	.
.	.	8ee\J	8ee\J	.	.	.	.	.
=87	=87	=87	=87	=87	=87	=87	=87	=87
4C#/	4c#\	4eee\	4eee\	.	1ryy	1r	.	.
4D/	4d\	8aa\L	8aa\L	.	.	.	.	.
.	.	8bb\J	8bb\J	.	.	.	.	.
4E/	4e\	2gg#X\	2gg#X\	.	.	.	.	.
4EE/	4E/	.	.	.	.	.	.	.
=88	=88	=88	=88	=88	=88	=88	=88	=88
!LO:TX:t=P:problem=jedna fermata nad nutą, druga fermata pod nutą	!	!	!	!	!	!	!	!
1AA;>;<	1A	4aa\	4aa\	.	1ryy	2r	.	.
.	.	4ee\	4ee\	.	.	.	.	.
.	.	2a/	2a/	.	.	4r	.	.
=-	=-	=-	=-	=-	=-	=||;>;<	=||	=||
!	!	!	!	!	!	!LO:TX:a:t=P:problem=fermata nad i pod kreską taktową	!	!
.	.	.	.	.	.	4a\	in	In
=89	=89	=89||;>;<	=89||;>;<	=89||	=89	=89	=89	=89
!	!	!LO:TX:a:t=P:problem=fermata nad i pod kreską taktową	!LO:TX:a:t=P:problem=fermata pod i nad kreską	!	!	!	!	!
4r	4r	4r	4dd\	.	1ryy	4dd\	him-	ce-
4F#\	4f#\	4a/	2dd\	.	.	2dd\	.	-le-
4E\	4e\	4g/	.	.	.	.	.	.
4D\	4d\	4f#/	4ff#\	.	.	4ff#\	-nis	.
!	!LO:LB:g=original	!	!	!	!	!	!	!
=90	=90	=90	=90	=90	=90	=90	=90	=90
4r	4r	4r	4ee\	.	1ryy	4ee\	in	-ſti-
4C#/	4c#/	4e/	2ee\	.	.	2ee\	him-	-bus
4BB/	4B/	4d/	.	.	.	.	.	.
4AA/	4A/	4c#/	4gg\	.	.	4gg\	-nis	.
=91	=91	=91	=91	=91	=91	=91	=91	=91
4D\	4d\	2d/	8ff#\L	.	1ryy	8ff#\L	.	re-
.	.	.	8dd\	.	.	8dd\J	et	-gnis
4E\	4e\	.	8gg\	.	.	8gg\	.	.
.	.	.	8ee\J	.	.	4dd\	can-	In
4F#\	4f#\	4a/	4aa\	.	.	.	.	.
.	.	.	.	.	.	8aa\	.	.
4G\	4g\	4b/	4dd\	.	.	4dd\	.	.
=92	=92	=92	=92	=92	=92	=92	=92	=92
4A\	4a\	4e/	8cc#\L	.	1ryy	8cc#\L	-ti-	ce-
.	.	.	8b\J	.	.	8b\J	-cis	.
4A\	4a\	4ee\	4a/	.	.	4a\	.	-le-
4A\	4a\	4ee\	4r	.	.	4r	.	.
4G\	4g\	4ee\	4aa\	.	.	4aa\	quan-	-sti-
!	!	!	!	!	!	!LO:LB:g=original	!	!
=93	=93	=93	=93	=93	=93	=93	=93	=93
!	!	!	!LO:SIC:v:s=4ccn	!	!	!LO:SIC:v:s=4ccn	!	!
4F#\	4f#\	4aa\	4cc-X\	.	1ryy	4cc-X\	-tum	-bus
!	!	!	!LO:SIC:v:s=4ccn	!	!	!LO:SIC:v:s=4ccn	!	!
4F#\	4f#\	2a/	2cc-\	.	.	4cc-\	.	.
!	!	!	!	!	!	!LO:SIC:v:s=4ccn	!	!
4F#\	4f#\	.	.	.	.	4cc-\	quan-	.
4F#\	4f#\	8g/L	8b\L	.	.	8b\L	.	Re-
.	.	8a/J	8a\J	.	.	8a\J	-tum	.
!LO:LB:g=original	!	!LO:LB:g=original	!	!	!	!	!	!
=94	=94	=94	=94	=94	=94	=94	=94	=94
4G\	4g\	4d/	8b/L	.	1ryy	8b\L	po-	-gnis
.	.	.	8a/J	.	.	8a\J	.	.
!	!	!	!LO:LB:g=original	!	!	!	!	!
4G\	4g\	4dd\	4g/	.	.	4g/	-tes	.
4G\	4g\	4dd\	4r	.	.	4r	.	.
4G\	4g\	4bb\	4bb\	.	.	4b\	tan-	San-
=95	=95	=95	=95	=95	=95	=95	=95	=95
4G#X\	4g#X\	4bb\	4dd\	.	1ryy	4dd\	-tum	.
4G#\	4g#\	2b/	2dd\	.	.	4dd\	.	-cto-
4G#\	4g#\	.	.	.	.	4dd\	tan-	.
4G#\	4g#\	8a/L	8cc#X\L	.	.	8cc#X\L	.	-rum
.	.	8b/J	8b\J	.	.	8b\J	-tum	.
=96	=96	=96	=96	=96	=96	=96	=96	=96
4A\	4a\	4e/	8cc#\L	.	1ryy	8cc#X\L	au-	San-
.	.	.	8b\J	.	.	8b\J	.	cto-
4AA/	4A/	8cc#X\L	4a/	.	.	4a\	-de	-rum
.	.	8dd\J	.	.	.	.	.	.
4C#/	4c#X/	4ee\	4r	.	.	4r	.	.
4AA/	4A/	4cc#\	4aa\	.	.	4aa\	tan-	ha-
=97	=97	=97	=97	=97	=97	=97	=97	=97
4D\	4d\	4dd\	16ff#\LL	.	1ryy	16ff#\LL	-tum	-bi-
.	.	.	16ee\JJ	.	.	16ee\JJ	.	.
.	.	.	4.dd\	.	.	4.dd\	.	.
4B\	4b\	4dd\	.	.	.	.	.	.
4G\	4g\	4dd\	2ee\	.	.	4ee\	au-	-ta-
4A\	4a\	4cc#\	.	.	.	4ee\	.	-tio
=98	=98	=98	=98	=98	=98	=98	=98	=98
4r	4r	4dd\	2dd\	.	1ryy	2dd\	-de	Est
!	!LO:SIC:v:s=4d	!	!	!	!	!	!	!
4D\	4c#\	4ff#\	.	.	.	.	.	.
!	!LO:SIC:v:s=4f	!	!	!	!	!	!	!
4F#\	4g\	4aa\	4r	.	.	4r	.	.
!	!LO:SIC:v:s=4d	!	!	!	!	!	!	!
4D\	4c#\	4dd\	4a/	.	.	4a\	qui-	ha-
=99	=99	=99	=99	=99	=99	=99	=99	=99
!	!LO:SIC:v:s=1G	!	!	!	!	!	!	!
1GG	1A	4b\	4b\	.	1ryy	4b\	-a	-bi-
.	.	2b\	2b\	.	.	2b\	.	.
.	.	4gg\	4gg\	.	.	4gg\	ma-	-ta-
=100	=100	=100	=100	=100	=100	=100	=100	=100
1AA	1A	4cc#\	4cc#\	.	1ryy	4cc#\	-ior	-ti-
.	.	2cc#\	2cc#\	.	.	2cc#\	.	.
.	.	4aa\	4aa\	.	.	4aa\	.	.
!	!	!	!	!	!	!LO:LB:g=original	!	!
=101	=101	=101	=101	=101	=101	=101	=101	=101
4BB/	4B/	4dd\	4dd\	.	1ryy	4dd\	om-	-o
!	!	!LO:N:vis=16	!	!	!	!	!	!
4BB/	4B/	8cc#\L	8cc#\L	.	.	8cc#\L	-ni	Est,
!	!	!LO:N:vis=16	!	!	!	!	!	!
.	.	8dd\J	8dd\J	.	.	8dd\J	.	.
4C#/	4c#/	4ee\	4ee\	.	.	4ee\	Lau-	A-
4C#/	4c#/	8dd\L	8dd\L	.	.	8dd\L	-de	-lle-
.	.	8ee\J	8ee\J	.	.	8ee\J	.	-lu-
=102	=102	=102	=102	=102	=102	=102	=102	=102
!LO:TX:t=P:problem=zbędny takt	!LO:TX:t=P:problem=zbędny takt w org	!LO:TX:t=P:problem=zbędny takt w org	!LO:TX:t=P:problem=zbędny takt w org	!	!	!LO:TX:t=P:problem=zbędny takt w org	!	!
1D	1ryy	1ryy	1ryy	.	1ryy	1ryy	.	.
=103	=103	=103	=103	=103	=103	=103	=103	=103
2D\	2d\	4ff#\	4ff#\	.	1ryy	4ff#\	nec	ia,
!	!	!LO:LB:g=original	!	!	!	!	!	!
.	.	8ee\L	8ff#\L	.	.	8ff#\L	.	.
.	.	8ff#\J	8gg\J	.	.	8gg\J	lau-	A-
!	!	!	!LO:LB:g=original	!	!	!	!	!
4r	4r	4aa\	4aa\	.	.	4aa\	.	lle-
4F#\	4f#\	4dd\	4dd\	.	.	4dd\	-dare	-lu-
!	!LO:LB:g=original	!	!	!	!	!	!	!
=104	=104	=104	=104	=104	=104	=104	=104	=104
2G\	2g\	2ee\	2ee\	.	1ryy	2ee\	ſuf-	-ia
2A\	2a\	2cc#\	2cc#\	.	.	2dd\	-fi-	.
=105	=105	=105	=105	=105	=105	=105	=105	=105
1D	1d	1dd	1dd	.	1ryy	1dd	-cis	.
!	!LO:TX:i:a:t=Da Capo.	!LO:TX:b:t=Da Capo &colon;||&colon;	!LO:TX:a:t=P:problem=napis w źródle za kreską na pięciolinii	!	!	!	!	!
!	!LO:TX:a:t=P:problem=napis w źródle za kreską na pięciolinii	!LO:TX:a:t=P:problem=napis w źródle za kreską na pięciolinii	!LO:TX:i:b:t=Da Capo	!	!	!LO:TX:i:b:t=Dacapo	!	!
==	==	==	==	==	==	==	==	==
*-	*-	*-	*-	*-	*-	*-	*-	*-
!!!system-decoration: [g1][g2][s6]
!!!RDF**kern: > = above
!!!RDF**kern: < = below
!!!EED: Mateusz Mrugas
!!!EEV: 2021-01-20
!!!ENC: Krzysztof Stępień
!!!END: 2020-12-07
!!!YEC: Copyright 2022 Narodowy Instytut Fryderyka Chopina (https://polishscores.org)
!!!YEM: License CC-BY-4.0 (https://creativecommons.org/licenses/by/4.0)
